X: 24
T: the SPANYARD
B: "FIFTY OLD ENGLISH FOLK DANCE AIRS", Edgar H. Hunt ed., Schott & Co. Ltd. pub., London 1939
Z: 2004-2014 John Chambers <jc:trillian.mit.edu>
M: 6/8
L: 1/8
K: Dmix
[|\
(fd)d d(c/d/)B | dd(c/d/) e2A | (fd)f f(e/f/)d  | fg(f/g/) a3 |\
 eee  c(B/c/)A | f(e/f/)d g2a | (ba)g (a>g)f/e/ | fe(d/e/) d3 |]

%%sep 1 1 500
%%sep 1 1 500
